X:8
T:Gavotte d'Yves Haire ton double - H
C:Jo\"el Huby
P:H4
Q:C3=156
M:12/8
K:C
P:H
%%MIDI gchord fzzczzfzcfzz
%%MIDI chordprog 21
%%MIDI chordvol 127
%%MIDI bassprog 36
%%MIDI bassvol 127
%%MIDI program 71
|: c2 B A2 B c2 A B3 | d2 c B2 G A3 A3 :|
|: e2 d c2 d e2 c d3 | B2 c d2 e d2 B c3 | A2 B c2 d c2 A B3 | d2 c B2 G A3 A3 :|
